64x64/apps/catfish.svg

<svg xmlns="http://www.w3.org/2000/svg" width="64" height="64" version="1.1">
 <path style="fill:#d79f87" d="M 40,16.678572 C 44.870083,12.460978 51.662135,9.2252332 59.638847,9.0000006 61.152502,18.313528 57.567287,25.790072 55.192316,29"/>
 <path style="fill:#946e5d" d="M 43,17.463104 C 47.263659,14.548315 51.451165,12.473112 57,12 56.664951,21.578844 54.704318,22.828164 52.690846,26"/>
 <path style="fill:#d79f87" d="M 7,36.790442 C 7.712545,32.488146 6.930653,16.899439 32.382653,15.200028 49.612608,17.730105 55.696383,24.427539 57,36.790442 56.639766,43.39605 39.380116,60.583101 32.2551,59.984717 24.560837,60.424466 7.11594,42.828113 7,36.790442 Z"/>
 <path style="fill:#d79f87" d="M 24,16.678572 C 19.129917,12.460978 12.337865,9.2252332 4.3611525,9.0000006 2.8474975,18.313528 6.4327132,25.790072 8.807684,29"/>
 <path style="fill:#946e5d" d="M 21,17.463104 C 16.736341,14.548315 12.548835,12.473112 7,12 c 0.3350491,9.578844 2.2956817,10.828164 4.309154,14"/>
 <path style="fill:#f4f4f7;opacity:0.2" d="M 4.3613281 9 C 4.0717605 10.781711 3.9726788 12.491104 4.0117188 14.119141 C 4.0278834 12.793193 4.130275 11.421672 4.3613281 10 C 12.224385 10.222023 18.926716 13.374393 23.78125 17.503906 C 26.253134 16.875221 29.095353 16.41872 32.382812 16.199219 C 35.327956 16.631689 37.924393 17.197387 40.25 17.880859 L 40 17.677734 C 44.870083 13.46014 51.66196 10.225233 59.638672 10 C 59.872738 11.440213 59.972815 12.830453 59.986328 14.173828 C 60.029148 12.52881 59.93117 10.799741 59.638672 9 C 51.66196 9.2252326 44.870083 12.46014 40 16.677734 L 40.25 16.880859 C 37.924393 16.197387 35.327956 15.631689 32.382812 15.199219 C 29.095352 15.41872 26.253134 15.875221 23.78125 16.503906 C 18.926716 12.374393 12.224385 9.2220234 4.3613281 9 z M 8.3652344 29.322266 C 7.331946 32.46474 7.2461441 35.304814 7 36.791016 C 7.0033287 36.96436 7.0253832 37.150098 7.0566406 37.341797 C 7.2837258 35.67114 7.4127649 32.840159 8.5839844 29.664062 C 8.5136943 29.564356 8.4370538 29.428803 8.3652344 29.322266 z M 55.421875 29.654297 C 55.346443 29.761439 55.264716 29.900917 55.191406 30 C 56.056813 32.168231 56.616392 34.59903 56.935547 37.304688 C 56.96476 37.12865 56.991083 36.954518 57 36.791016 C 56.721616 34.15095 56.200203 31.790639 55.421875 29.654297 z"/>
 <path style="fill:#946e5d" d="m 37.5,47.499966 a 5.5,5.5 0 1 1 -11,0 5.5,5.5 0 1 1 11,0 z"/>
 <path style="opacity:0.1" d="m 30.6,39.177038 c 0,0 -13.796017,-1.758651 -16.101447,5.809803 -1.546587,5.077273 1.98603,5.206374 2.532369,8.639378 C 17.577258,57.05923 13.6,56.187353 13.6,56.187353 l 0.380064,0.762891 c 0,0 3.882243,0.681154 4.001014,-2.997069 0.118773,-3.678222 -3.593487,-5.342601 -1.313114,-8.966334 2.280372,-3.623729 10.765916,-1.499322 10.765916,-1.499322 z"/>
 <path style="fill:#4a3025" d="m 30.6,38.177038 c 0,0 -13.796017,-1.758651 -16.101447,5.809803 -1.546587,5.077273 1.98603,5.206374 2.532369,8.639378 C 17.577258,56.05923 13.6,55.187353 13.6,55.187353 l 0.380064,0.762891 c 0,0 3.882243,0.681154 4.001014,-2.997069 0.118773,-3.678222 -3.593487,-5.342601 -1.313114,-8.966334 2.280372,-3.623729 10.765916,-1.499322 10.765916,-1.499322 z"/>
 <path style="opacity:0.1" d="M 20.5,19 C 14.70372,19 9.9992456,23.705407 10,29.5 9.99866,35.295096 14.703349,40 20.5,40 26.296282,40 31.000755,35.294588 31,29.5 31.0013,23.704904 26.296653,19 20.5,19 Z m 0,3 c 4.140474,0 7.500958,3.36064 7.5,7.5 5.39e-4,4.138998 -3.359792,7.5 -7.5,7.5 -4.140472,0 -7.500958,-3.36064 -7.5,-7.5 -5.39e-4,-4.139002 3.359793,-7.5 7.5,-7.5 z"/>
 <path style="fill:#1b65cf" d="M 20.5 18 C 14.70372 18 9.9992456 22.705407 10 28.5 C 9.99866 34.295096 14.703349 39 20.5 39 C 26.296282 39 31.000755 34.294588 31 28.5 C 31.0013 22.704904 26.296653 18 20.5 18 z M 20.5 21 C 24.640474 21 28.000958 24.36064 28 28.5 C 28.000539 32.638998 24.640208 36 20.5 36 C 16.359528 36 12.999042 32.63936 13 28.5 C 12.999461 24.360998 16.359793 21 20.5 21 z"/>
 <path style="opacity:0.1" d="m 33.4,39.177038 c 0,0 13.796017,-1.758651 16.101447,5.809803 1.546587,5.077273 -1.98603,5.206374 -2.532369,8.639378 C 46.422742,57.05923 50.4,56.187353 50.4,56.187353 l -0.380064,0.762891 c 0,0 -3.882243,0.681154 -4.001014,-2.997069 -0.118773,-3.678222 3.593487,-5.342601 1.313114,-8.966334 C 45.051664,41.363112 36.56612,43.487519 36.56612,43.487519 Z"/>
 <path style="fill:#4a3025" d="m 33.4,38.177038 c 0,0 13.796017,-1.758651 16.101447,5.809803 1.546587,5.077273 -1.98603,5.206374 -2.532369,8.639378 C 46.422742,56.05923 50.4,55.187353 50.4,55.187353 l -0.380064,0.762891 c 0,0 -3.882243,0.681154 -4.001014,-2.997069 -0.118773,-3.678222 3.593487,-5.342601 1.313114,-8.966334 C 45.051664,40.363112 36.56612,42.487519 36.56612,42.487519 Z"/>
 <path style="fill:#383838" d="m 37.5,41.5 a 5.5,5.4999999 0 1 1 -11,0 5.5,5.4999999 0 1 1 11,0 z"/>
 <path style="opacity:0.2" d="m 43.48369,28.001346 c -2.066756,0.01897 -3.565739,0.238163 -4.768792,0.805074 -1.604073,0.755878 -2.621083,2.122221 -3.689702,4.321175 a 0.26088317,0.25415387 0 0 0 0.07439,0.308725 c 1.233448,0.94425 2.386202,1.435236 3.466547,1.541644 1.080344,0.106414 2.078231,-0.17787 2.974382,-0.738558 1.792295,-1.121367 3.212654,-3.317412 4.43457,-5.833041 a 0.26088317,0.25415387 0 0 0 -0.225194,-0.362331 c -0.825104,-0.03259 -1.577275,-0.049 -2.266197,-0.04269 z"/>
 <path style="fill:#aef766" d="m 43.48369,27.001346 c -2.066756,0.01897 -3.565739,0.238163 -4.768792,0.805074 -1.604073,0.755878 -2.621083,2.122221 -3.689702,4.321175 a 0.26088317,0.25415387 0 0 0 0.07439,0.308725 c 1.233448,0.94425 2.386202,1.435236 3.466547,1.541644 1.080344,0.106414 2.078231,-0.17787 2.974382,-0.738558 1.792295,-1.121367 3.212654,-3.317412 4.43457,-5.833041 a 0.26088317,0.25415387 0 0 0 -0.225194,-0.362331 c -0.825104,-0.03259 -1.577275,-0.049 -2.266197,-0.04269 z"/>
 <path style="fill:#263742" d="m 39.073513,28.600002 c -0.185972,1.9923 -0.1078,2.86901 1.301486,4 -0.09795,-1.839009 -0.148526,-2.730617 -1.301486,-4 z"/>
 <path style="opacity:0.1" d="M 59.946002,27.364979 A 23.623847,5.3957636 18.246416 1 1 15.054008,12.634981 23.623847,5.3957636 18.246416 1 1 59.946002,27.364979 Z"/>
 <path style="fill:#17191e" d="M 59.946002,26.364979 A 23.623847,5.3957636 18.246416 1 1 15.054008,11.634981 23.623847,5.3957636 18.246416 1 1 59.946002,26.364979 Z"/>
 <path style="opacity:0.1" d="M 32.308591,5.0000006 C 37.345616,5.1676382 45.931673,6.6249283 53,11.089278 L 49.379932,21.914362 C 41.91488,22.554715 33.304788,19.459418 29,15.666638 Z"/>
 <path style="fill:#484848" d="M 32.308591,4.0000004 C 37.345616,4.167638 45.931673,5.6249281 53,10.089278 L 49.379932,20.914362 C 41.91488,21.554715 33.304788,18.459418 29,14.666638 Z"/>
 <path style="opacity:0.2" d="m 32.470145,4.0079104 c 6.283605,4.927046 16.325147,6.9226306 20.440894,6.3461886 l 0.08874,-0.26511 C 46.00399,5.6704527 37.527044,4.2002039 32.470145,4.0079104 Z"/>
 <path style="fill:#1b65cf" d="m 10.060098,27.239461 c -1.317447,0.418085 -2.143546,0.813033 -2.6195266,1.255077 -0.2379904,0.221021 -0.3944239,0.467366 -0.4320306,0.735544 -0.037607,0.26818 0.052092,0.529972 0.2078121,0.751953 0.3114385,0.44396 0.8750154,0.79778 1.5941381,1.153903 0.7191227,0.356125 1.597754,0.700209 2.532027,1.041796 l 0.196875,-0.533202 C 10.613108,31.305866 9.7492169,30.966288 9.0647874,30.627346 8.3803581,30.288404 7.8777085,29.936776 7.681196,29.656645 7.58294,29.516579 7.5572668,29.410434 7.5718212,29.306645 7.5863756,29.20285 7.6509855,29.072807 7.8261176,28.910162 8.1763813,28.584871 8.9507769,28.187571 10.232364,27.780866 Z"/>
 <path style="opacity:0.1" d="m 32,44.5 a 5.5,5.5 0 1 1 -11,0 5.5,5.5 0 1 1 11,0 z"/>
 <path style="fill:#79503c" d="m 32,43.5 a 5.5,5.5 0 1 1 -11,0 5.5,5.5 0 1 1 11,0 z"/>
 <path style="opacity:0.1" d="m 42.999954,44.499455 a 5.5,5.4982003 0 1 1 -10.999999,0 5.5,5.4982003 0 1 1 10.999999,0 z"/>
 <path style="fill:#79503c" d="m 42.999954,43.499455 a 5.5,5.4982003 0 1 1 -10.999999,0 5.5,5.4982003 0 1 1 10.999999,0 z"/>
 <path style="opacity:0.2;fill:#f4f4f7" d="M 29.777574,12.159048 29,14.665694 c 4.304788,3.79278 12.914544,6.890366 20.379596,6.250011 l 0.73897,-2.213372 c -2.181007,0.177365 -7.533296,-0.514858 -10.95772,-1.47466 -3.678325,-1.030963 -7.684373,-3.216478 -9.383272,-5.068625 z"/>
 <path style="opacity:0.3;fill:#1b65cf" d="m 20.5,21 c 4.140473,0 7.500959,3.36064 7.5,7.5 5.39e-4,4.138997 -3.359793,7.499999 -7.5,7.499999 -4.140471,0 -7.500957,-3.360639 -7.499999,-7.499999 C 12.999462,24.360998 16.359794,21 20.5,21 Z"/>
 <path style="opacity:0.2" d="m 17.516311,28.001346 c 2.066756,0.01897 3.565739,0.238163 4.768792,0.805074 1.604073,0.755878 2.621083,2.122221 3.689702,4.321175 a 0.26088317,0.25415387 0 0 1 -0.07439,0.308725 c -1.233448,0.94425 -2.386202,1.435236 -3.466547,1.541644 -1.080344,0.106414 -2.078231,-0.17787 -2.974382,-0.738558 -1.792295,-1.121367 -3.212654,-3.317412 -4.43457,-5.833041 a 0.26088317,0.25415387 0 0 1 0.225194,-0.362331 c 0.825104,-0.03259 1.577275,-0.049 2.266197,-0.04269 z"/>
 <path style="fill:#aef766" d="m 17.516311,27.001346 c 2.066756,0.01897 3.565739,0.238163 4.768792,0.805074 1.604073,0.755878 2.621083,2.122221 3.689702,4.321175 a 0.26088317,0.25415387 0 0 1 -0.07439,0.308725 c -1.233448,0.94425 -2.386202,1.435236 -3.466547,1.541644 -1.080344,0.106414 -2.078231,-0.17787 -2.974382,-0.738558 -1.792295,-1.121367 -3.212654,-3.317412 -4.43457,-5.833041 a 0.26088317,0.25415387 0 0 1 0.225194,-0.362331 c 0.825104,-0.03259 1.577275,-0.049 2.266197,-0.04269 z"/>
 <path style="fill:#263742" d="m 21.926488,28.600002 c 0.185972,1.9923 0.1078,2.86901 -1.301486,4 0.09795,-1.839009 0.148526,-2.730617 1.301486,-4 z"/>
</svg>

<svg xmlns="http://www.w3.org/2000/svg" width="64" height="64"><path style="fill:#d79f87" d="M40 16.679C44.87 12.46 51.662 9.225 59.639 9c1.514 9.314-2.072 16.79-4.447 20"/><path style="fill:#946e5d" d="M43 17.463c4.264-2.915 8.451-4.99 14-5.463-.335 9.579-2.296 10.828-4.31 14"/><path style="fill:#d79f87" d="M7 36.79c.713-4.302-.07-19.89 25.383-21.59C49.613 17.73 55.696 24.428 57 36.79c-.36 6.606-17.62 23.793-24.745 23.195C24.561 60.425 7.115 42.828 7 36.79z"/><path style="fill:#d79f87" d="M24 16.679C19.13 12.46 12.338 9.225 4.361 9c-1.514 9.314 2.072 16.79 4.447 20"/><path style="fill:#946e5d" d="M21 17.463c-4.264-2.915-8.451-4.99-14-5.463.335 9.579 2.296 10.828 4.31 14"/><path style="fill:#f4f4f7;opacity:.2" d="M4.361 9a27.693 27.693 0 0 0-.35 5.12c.017-1.327.12-2.698.35-4.12 7.863.222 14.566 3.374 19.42 7.504 2.472-.629 5.314-1.085 8.602-1.305 2.945.433 5.541.998 7.867 1.682l-.25-.203C44.87 13.46 51.662 10.225 59.639 10c.234 1.44.334 2.83.347 4.174A27.69 27.69 0 0 0 59.64 9C51.662 9.225 44.87 12.46 40 16.678l.25.203c-2.326-.684-4.922-1.25-7.867-1.682-3.288.22-6.13.676-8.602 1.305C18.927 12.374 12.224 9.222 4.361 9zm4.004 20.322C7.332 32.465 7.246 35.305 7 36.791c.003.173.025.36.057.55.227-1.67.356-4.5 1.527-7.677-.07-.1-.147-.235-.219-.342zm47.057.332c-.076.107-.157.247-.23.346.865 2.168 1.424 4.599 1.744 7.305.029-.176.055-.35.064-.514-.278-2.64-.8-5-1.578-7.137z"/><path style="fill:#946e5d" d="M37.5 47.5a5.5 5.5 0 1 1-11 0 5.5 5.5 0 1 1 11 0z"/><path style="opacity:.1" d="M30.6 39.177s-13.796-1.759-16.101 5.81c-1.547 5.077 1.986 5.206 2.532 8.64.546 3.432-3.431 2.56-3.431 2.56l.38.763s3.882.681 4.001-2.997c.119-3.678-3.593-5.342-1.313-8.966 2.28-3.624 10.766-1.5 10.766-1.5z"/><path style="fill:#4a3025" d="M30.6 38.177s-13.796-1.759-16.101 5.81c-1.547 5.077 1.986 5.206 2.532 8.64.546 3.432-3.431 2.56-3.431 2.56l.38.763s3.882.681 4.001-2.997c.119-3.678-3.593-5.342-1.313-8.966 2.28-3.624 10.766-1.5 10.766-1.5z"/><path style="opacity:.1" d="M20.5 19C14.704 19 10 23.705 10 29.5 9.999 35.295 14.703 40 20.5 40 26.296 40 31 35.295 31 29.5c.001-5.795-4.703-10.5-10.5-10.5zm0 3c4.14 0 7.501 3.36 7.5 7.5 0 4.139-3.36 7.5-7.5 7.5a7.502 7.502 0 0 1-7.5-7.5c0-4.139 3.36-7.5 7.5-7.5z"/><path style="fill:#1b65cf" d="M20.5 18C14.704 18 10 22.705 10 28.5 9.999 34.295 14.703 39 20.5 39 26.296 39 31 34.295 31 28.5c.001-5.795-4.703-10.5-10.5-10.5zm0 3c4.14 0 7.501 3.36 7.5 7.5 0 4.139-3.36 7.5-7.5 7.5a7.502 7.502 0 0 1-7.5-7.5c0-4.139 3.36-7.5 7.5-7.5z"/><path style="opacity:.1" d="M33.4 39.177s13.796-1.759 16.101 5.81c1.547 5.077-1.986 5.206-2.532 8.64-.546 3.432 3.431 2.56 3.431 2.56l-.38.763s-3.882.681-4.001-2.997c-.119-3.678 3.593-5.342 1.313-8.966-2.28-3.624-10.766-1.5-10.766-1.5z"/><path style="fill:#4a3025" d="M33.4 38.177s13.796-1.759 16.101 5.81c1.547 5.077-1.986 5.206-2.532 8.64-.546 3.432 3.431 2.56 3.431 2.56l-.38.763s-3.882.681-4.001-2.997c-.119-3.678 3.593-5.342 1.313-8.966-2.28-3.624-10.766-1.5-10.766-1.5z"/><path style="fill:#383838" d="M37.5 41.5a5.5 5.5 0 1 1-11 0 5.5 5.5 0 1 1 11 0z"/><path style="opacity:.2" d="M43.484 28.001c-2.067.02-3.566.239-4.77.805-1.603.756-2.62 2.123-3.689 4.322a.26.254 0 0 0 .075.308c1.233.945 2.386 1.436 3.466 1.542 1.08.106 2.078-.178 2.975-.739 1.792-1.121 3.212-3.317 4.434-5.833a.26.254 0 0 0-.225-.362 47.05 47.05 0 0 0-2.266-.043z"/><path style="fill:#aef766" d="M43.484 27.001c-2.067.02-3.566.239-4.77.805-1.603.756-2.62 2.123-3.689 4.322a.26.254 0 0 0 .075.308c1.233.945 2.386 1.436 3.466 1.542 1.08.106 2.078-.178 2.975-.739 1.792-1.121 3.212-3.317 4.434-5.833a.26.254 0 0 0-.225-.362 47.05 47.05 0 0 0-2.266-.043z"/><path style="fill:#263742" d="M39.074 28.6c-.186 1.992-.108 2.869 1.301 4-.098-1.839-.149-2.73-1.301-4z"/><path style="opacity:.1" d="M59.946 27.365a23.624 5.396 18.246 1 1-44.892-14.73 23.624 5.396 18.246 1 1 44.892 14.73z"/><path style="fill:#17191e" d="M59.946 26.365a23.624 5.396 18.246 1 1-44.892-14.73 23.624 5.396 18.246 1 1 44.892 14.73z"/><path style="opacity:.1" d="M32.309 5c5.037.168 13.623 1.625 20.691 6.09l-3.62 10.824c-7.465.64-16.075-2.455-20.38-6.247z"/><path style="fill:#484848" d="M32.309 4c5.037.168 13.623 1.625 20.691 6.09l-3.62 10.824c-7.465.64-16.075-2.455-20.38-6.247z"/><path style="opacity:.2" d="M32.47 4.008c6.284 4.927 16.325 6.923 20.441 6.346L53 10.09C46.004 5.67 37.527 4.2 32.47 4.008z"/><path style="fill:#1b65cf" d="M10.06 27.24c-1.317.418-2.143.812-2.62 1.255-.237.22-.394.467-.431.735-.038.268.052.53.207.752.312.444.875.798 1.594 1.154.72.356 1.598.7 2.533 1.042l.196-.533c-.926-.34-1.79-.679-2.474-1.018-.685-.339-1.187-.69-1.384-.97-.098-.14-.124-.247-.11-.35.015-.104.08-.234.255-.397.35-.325 1.125-.722 2.406-1.13z"/><path style="opacity:.1" d="M32 44.5a5.5 5.5 0 1 1-11 0 5.5 5.5 0 1 1 11 0z"/><path style="fill:#79503c" d="M32 43.5a5.5 5.5 0 1 1-11 0 5.5 5.5 0 1 1 11 0z"/><path style="opacity:.1" d="M43 44.5a5.5 5.498 0 1 1-11 0 5.5 5.498 0 1 1 11 0z"/><path style="fill:#79503c" d="M43 43.5a5.5 5.498 0 1 1-11 0 5.5 5.498 0 1 1 11 0z"/><path style="opacity:.2;fill:#f4f4f7" d="M29.778 12.159 29 14.666c4.305 3.792 12.915 6.89 20.38 6.25l.739-2.214c-2.181.178-7.534-.515-10.958-1.474-3.678-1.031-7.685-3.217-9.383-5.069z"/><path style="opacity:.3;fill:#1b65cf" d="M20.5 21c4.14 0 7.501 3.36 7.5 7.5 0 4.139-3.36 7.5-7.5 7.5a7.502 7.502 0 0 1-7.5-7.5c0-4.139 3.36-7.5 7.5-7.5z"/><path style="opacity:.2" d="M17.516 28.001c2.067.02 3.566.239 4.77.805 1.603.756 2.62 2.123 3.689 4.322a.26.254 0 0 1-.075.308c-1.233.945-2.386 1.436-3.466 1.542-1.08.106-2.078-.178-2.975-.739-1.792-1.121-3.212-3.317-4.434-5.833a.26.254 0 0 1 .225-.362 47.05 47.05 0 0 1 2.266-.043z"/><path style="fill:#aef766" d="M17.516 27.001c2.067.02 3.566.239 4.77.805 1.603.756 2.62 2.123 3.689 4.322a.26.254 0 0 1-.075.308c-1.233.945-2.386 1.436-3.466 1.542-1.08.106-2.078-.178-2.975-.739-1.792-1.121-3.212-3.317-4.434-5.833a.26.254 0 0 1 .225-.362 47.05 47.05 0 0 1 2.266-.043z"/><path style="fill:#263742" d="M21.926 28.6c.186 1.992.108 2.869-1.301 4 .098-1.839.149-2.73 1.301-4z"/></svg>
